icons/mobile/24/svg/local-network-slash-24.svg

<svg width="24" height="24" viewBox="0 0 24 24" fill="none" xmlns="http://www.w3.org/2000/svg">
<path d="M7.2495 14.2496C7.93972 14.2496 8.49928 14.8094 8.4995 15.4996C8.4995 16.19 7.93986 16.7496 7.2495 16.7496C6.55934 16.7494 5.9995 16.1898 5.9995 15.4996C5.99972 14.8096 6.55947 14.2498 7.2495 14.2496Z" fill="black"/>
<path d="M12.2495 14.2496C12.9397 14.2496 13.4993 14.8094 13.4995 15.4996C13.4995 16.19 12.9399 16.7496 12.2495 16.7496C11.5593 16.7494 10.9995 16.1898 10.9995 15.4996C10.9997 14.8096 11.5595 14.2498 12.2495 14.2496Z" fill="black"/>
<path fill-rule="evenodd" clip-rule="evenodd" d="M2.25536 2.25547C2.59694 1.91391 3.15191 1.91415 3.49364 2.25547L21.7436 20.5055C22.0853 20.8472 22.0853 21.402 21.7436 21.7438C21.4019 22.0855 20.8471 22.0855 20.5054 21.7438L19.2895 20.5279C16.883 20.8398 14.419 20.9977 11.9995 20.9977C9.57964 20.9976 7.13567 20.8408 4.7368 20.5309C3.17699 20.3298 1.99968 18.9952 1.9995 17.4264V13.568C1.99952 12.0011 3.16373 10.6686 4.70848 10.4684C6.08046 10.2905 7.46456 10.1658 8.85302 10.0914L2.25536 3.49375C1.91403 3.15201 1.91378 2.59705 2.25536 2.25547ZM10.5308 11.7691C8.65951 11.8196 6.78263 11.9644 4.93407 12.2037C4.25909 12.2917 3.74953 12.879 3.7495 13.5689V17.4273C3.74967 18.1192 4.2715 18.7085 4.96239 18.7975C9.17239 19.3403 13.4858 19.3893 17.7114 18.9498L10.5308 11.7691Z" fill="black"/>
<path d="M18.1245 4.99961C18.6074 4.99961 18.9993 5.3918 18.9995 5.87461V10.4342C19.0874 10.4451 19.1754 10.4561 19.2632 10.4674C20.823 10.6685 22.0004 12.003 22.0005 13.5719V17.4303C22.0004 17.791 21.9318 18.1367 21.8179 18.4615L20.2505 16.8941V13.5719C20.2504 12.8799 19.7285 12.2908 19.0376 12.2018C17.7687 12.0378 16.4864 11.9232 15.2036 11.8482L13.3813 10.024C14.6738 10.0555 15.965 10.1285 17.2495 10.2457V5.87461C17.2497 5.39194 17.6418 4.99984 18.1245 4.99961Z" fill="black"/>
<path d="M9.61473 5.74961C10.3117 5.74961 10.9711 5.90995 11.5591 6.19395C11.874 6.34497 11.9486 6.76141 11.7016 7.0084L11.4839 7.22617C11.33 7.38005 11.155 7.50491 10.9712 7.61485L9.13329 5.77793C9.29111 5.75996 9.45193 5.74962 9.61473 5.74961Z" fill="black"/>
<path d="M9.61473 2.24961C11.1377 2.24961 12.5662 2.65687 13.8022 3.36387C14.297 3.6469 14.3759 4.33297 13.9731 4.73594C13.7031 5.00594 13.2826 5.07926 12.9516 4.88926C11.9667 4.32528 10.8287 3.99961 9.61473 3.99961C8.93278 3.99963 8.27866 4.11236 7.6577 4.30235L6.29345 2.93906C7.31441 2.50008 8.43478 2.24963 9.61473 2.24961Z" fill="black"/>
</svg>

<!-- This Source Code Form is subject to the terms of the Mozilla Public
   - License, v. 2.0. If a copy of the MPL was not distributed with this
   - file, You can obtain one at http://mozilla.org/MPL/2.0/. -->
<svg xmlns="http://www.w3.org/2000/svg" width="24" height="24" fill="none" viewBox="0 0 24 24">
    <path fill="#000" d="M7.25 14.25a1.25 1.25 0 1 1-.001 2.5 1.25 1.25 0 0 1 0-2.5m5.001 0a1.25 1.25 0 1 1-.001 2.5 1.25 1.25 0 0 1 0-2.5" />
    <path fill="#000" fill-rule="evenodd" d="M2.255 2.255a.877.877 0 0 1 1.239 0l18.25 18.25a.876.876 0 0 1-1.239 1.239l-1.215-1.216a57 57 0 0 1-14.553.003A3.14 3.14 0 0 1 2 17.426v-3.858c0-1.567 1.164-2.9 2.708-3.1a55 55 0 0 1 4.145-.377L2.255 3.494a.876.876 0 0 1 0-1.239m8.276 9.514c-1.871.05-3.748.195-5.597.435a1.374 1.374 0 0 0-1.185 1.365v3.858a1.39 1.39 0 0 0 1.213 1.37 55.3 55.3 0 0 0 12.75.153z" clip-rule="evenodd" />
    <path fill="#000" d="M18.125 5c.482 0 .874.392.875.875v4.56l.263.032A3.14 3.14 0 0 1 22 13.572v3.858c0 .361-.068.707-.182 1.032l-1.568-1.568v-3.322a1.39 1.39 0 0 0-1.212-1.37 55 55 0 0 0-3.834-.354l-1.823-1.824a58 58 0 0 1 3.869.222V5.875c0-.483.392-.875.875-.875m-8.51.75c.697 0 1.356.16 1.944.444.315.151.39.567.143.814l-.218.218a2.6 2.6 0 0 1-.513.389L9.133 5.778q.237-.027.482-.028m0-3.5c1.523 0 2.951.407 4.187 1.114.495.283.574.969.171 1.372a.854.854 0 0 1-1.021.153A6.7 6.7 0 0 0 9.615 4a6.7 6.7 0 0 0-1.957.303L6.293 2.94a8.4 8.4 0 0 1 3.322-.69" />
</svg>
